X:1
T:Title
%%score { ( 1 3 4 ) | 2 }
L:1/8
M:3/4
K:G
V:1 treble nm="Grand Piano"
V:3 treble 
V:4 treble 
V:2 bass 
V:1
 z2 z2 z[Q:1/4=100] G | =F>^D =D>C _B,>C | C6 | D>^D =F>G ^G>F | G6 | c>B c>d ^d>=d | c6 | %7
 _B>A B>c d>c | _B6[K:bass][K:treble] | c>B c>G B>A | ^G6 | G>F G>=F D>^D | C6 |] %13
V:2
 z6 | C,2 [^D,G,]2 [D,G,]2 | C,2 ^D,2 D,2 | C,2 [=F,^G,]2 [F,G,]2 | C,2 ^D,2 D,2 | %5
 C,2 [=F,^G,]2 [F,G,]2 | C,2 ^D,2 D,2 | _B,,2 [D,=F,]2 [D,F,]2 | _B,,2 D,2 D,2 | %9
 C,2 [^D,G,]2 [D,G,]2 | C,2 =F,2 F,2 | C,2 [^D,G,]2 [B,,=F,G,]2 | [C,^D,G,]6 |] %13
V:3
 x6 | x6 | z2 G,2 z C | x6 | z2 G,2 z G | x6 | z2 G,2 z G | x6 | z2[K:bass] =F,2 z[K:treble] G | %9
 x6 | z2 ^G,2 z ^G | x6 | x6 |] %13
V:4
 x6 | x6 | z2 z2 G,2 | x6 | z2 z2 G,2 | x6 | z2 z2 G,2 | x6 | z2[K:bass] z2 =F,2[K:treble] | x6 | %10
 z2 z2 ^G,2 | x6 | x6 |] %13

